X:1
T:[ID 2-41a]
T:[ID 2-41a]
T:Bezeichnung standardisiert: Polonaise nach Blitz; Polonoise Nach Blitz In dieser Quelle auch als: Polonaise In dieser Quelle auch als: Polonoise In dieser Quelle auch als: Polon\"aise In anderer Quelle: Polonoise - Hs. \"OVLA E-97/E-149 um 1750 (Anm. S. Wascher);  Polonaise, Niederschrift L. Mozart 1762 (Anm. S. Wascher);
T:Urheber unbekannt Erstbeleg: um 1750 (Wissenschaftliche Sch\"atzung Datum in der hier transkribierten schriftlichen Quelle: 1767
C:Urheber unbekannt
C:Erstbeleg: um 1750 (Wissenschaftliche Sch\"atzung
C:Datum in der hier transkribierten schriftlichen Quelle: 1767
L:1/8
M:3/4
K:D
V:1 treble 
V:1
 d2 A2 d2 | ee e/f/g/e/ f2 | ee e/f/g/e/ f2 | gb ba/g/ af | eg gf/e/ fd | c/d/e/c/ d2 D2 :: %6
 e2 A2 g2 | ff f/a/g/f/ e2 | e2 A2 g2 | ff f/a/g/f/ e2 | gb ba/g/ af | eg gf/e/ d | %12
 c/d/e/c/ d2 D2 :| %13

